material/.icons/material/format-horizontal-align-center.svg

<svg xmlns="http://www.w3.org/2000/svg" viewBox="0 0 24 24"><path d="M19 16v-3h4v-2h-4V8l-4 4 4 4M5 8v3H1v2h4v3l4-4-4-4m6 12h2V4h-2v16z"/></svg>

<?xml version="1.0" encoding="UTF-8"?><!DOCTYPE svg PUBLIC "-//W3C//DTD SVG 1.1//EN" "http://www.w3.org/Graphics/SVG/1.1/DTD/svg11.dtd"><svg xmlns="http://www.w3.org/2000/svg" xmlns:xlink="http://www.w3.org/1999/xlink" version="1.1" id="mdi-format-horizontal-align-center" width="24" height="24" viewBox="0 0 24 24"><path d="M19,16V13H23V11H19V8L15,12L19,16M5,8V11H1V13H5V16L9,12L5,8M11,20H13V4H11V20Z" /></svg>
